packages/katcn/src/icons/svg/textBlock-solid.svg

<svg width="24" height="25" viewBox="0 0 24 25" fill="none" xmlns="http://www.w3.org/2000/svg">
<path d="M1 9.59601V14.996C1 16.896 2.5 18.396 4.3 18.396H14V6.19601H4.3C2.5 6.19601 1 7.69601 1 9.59601Z" fill="black"/>
<path d="M19.7 6.19602H18V4.29602H19C19.6 4.29602 20 3.89602 20 3.29602C20 2.69602 19.6 2.29602 19 2.29602H15.1C14.5 2.29602 14.1 2.69602 14.1 3.29602C14.1 3.89602 14.5 4.29602 15.1 4.29602H16V6.19602V18.396V20.296H15.1C14.5 20.296 14.1 20.696 14.1 21.296C14.1 21.896 14.5 22.296 15.1 22.296H19C19.6 22.296 20 21.896 20 21.296C20 20.696 19.6 20.296 19 20.296H18V18.396H19.7C21.5 18.396 23 16.896 23 14.996V9.59602C23 7.69602 21.5 6.19602 19.7 6.19602Z" fill="black"/>
</svg>

<svg xmlns="http://www.w3.org/2000/svg" fill="none" viewBox="0 0 24 25"><path fill="#000" d="M1 9.596v5.4c0 1.9 1.5 3.4 3.3 3.4H14v-12.2H4.3c-1.8 0-3.3 1.5-3.3 3.4m18.7-3.4H18v-1.9h1c.6 0 1-.4 1-1s-.4-1-1-1h-3.9c-.6 0-1 .4-1 1s.4 1 1 1h.9v16h-.9c-.6 0-1 .4-1 1s.4 1 1 1H19c.6 0 1-.4 1-1s-.4-1-1-1h-1v-1.9h1.7c1.8 0 3.3-1.5 3.3-3.4v-5.4c0-1.9-1.5-3.4-3.3-3.4"/></svg>
